build/img/logo.svg

<svg width="49" height="20" viewBox="0 0 49 20" fill="none" xmlns="http://www.w3.org/2000/svg">
<g clip-path="url(#clip0)">
<path d="M9.94873 6.60101H14.568V10.8967H9.94873V6.60101Z" fill="#C8134A"/>
<path d="M29.3504 10.9182H24.6882V6.65112H29.3504V10.9182Z" fill="#C8134A"/>
<path d="M4.65052 19.9857H0.0117188V15.69H4.65052V19.9857Z" fill="#C8134A"/>
<path d="M9.91357 6.27886V2.20691H14.5777V6.27886H9.91357Z" fill="#C8134A"/>
<path d="M24.6941 2.18182H29.3446V6.27347H24.6941V2.18182Z" fill="#C8134A"/>
<path d="M14.9736 6.6225H19.431V10.8949H14.9736V6.6225Z" fill="#C8134A"/>
<path d="M19.8271 6.6225H24.2982V10.9003H19.8271V6.6225Z" fill="#C8134A"/>
<path d="M34.2564 6.65649V10.8842H29.76V6.65649H34.2564Z" fill="#C8134A"/>
<path d="M39.0846 10.9182H34.6233V6.63861H39.0846V10.9182Z" fill="#C8134A"/>
<path d="M4.66416 15.3535H0V11.2762H4.66416V15.3535Z" fill="#C8134A"/>
<path d="M5.02515 19.9445V15.7168H9.52349V19.9445H5.02515Z" fill="#C8134A"/>
<path d="M44.1115 20H39.6814V15.7043H44.1115V20Z" fill="#C8134A"/>
<path d="M44.5369 15.6882H49.0001V19.9481H44.5369V15.6882Z" fill="#C8134A"/>
<path d="M14.96 6.28601V2.19974H19.4466V6.28601H14.96Z" fill="#C8134A"/>
<path d="M19.8484 2.17825H24.3116V6.26452H19.8484V2.17825Z" fill="#C8134A"/>
<path d="M34.2291 2.19794V6.28779H29.7659V2.19794H34.2291Z" fill="#C8134A"/>
<path d="M39.0826 6.28781H34.6252V2.19617H39.0826V6.28781Z" fill="#C8134A"/>
<path d="M9.52328 15.3535H5.0542V11.2762H9.52328V15.3535Z" fill="#C8134A"/>
<path d="M44.1407 15.3571H39.6755V11.2583H44.1407V15.3571Z" fill="#C8134A"/>
<path d="M48.9962 15.3535H44.5408V11.2618H48.9962V15.3535Z" fill="#C8134A"/>
<path d="M9.4727 10.7786H5.18113C5.14602 8.7113 7.08893 6.91248 9.4727 6.8212V10.7786Z" fill="#C8134A"/>
<path d="M39.658 6.80148C42.0788 6.98047 43.9495 8.67369 43.9749 10.7535H39.658V6.80148Z" fill="#C8134A"/>
<path d="M20.5859 1.68424C21.9046 1.07926 22.9873 0.558413 24.0972 0.0912573C24.3841 -0.0216263 24.7071 -0.0299471 25.0004 0.067989C26.1252 0.531325 27.2114 1.06973 28.2503 1.67887L20.5859 1.68424Z" fill="#C8134A"/>
<path d="M39.104 11.3084V14.2151L35.9634 11.3084H39.104Z" fill="#C8134A"/>
<path d="M10.1165 11.3066H13.1986L10.1165 14.063V11.3066Z" fill="#C8134A"/>
</g>
<defs>
<clipPath id="clip0">
<rect width="49" height="20" fill="white"/>
</clipPath>
</defs>
</svg>

<svg width="49" height="20" fill="none" xmlns="http://www.w3.org/2000/svg"><g clip-path="url(#clip0)" fill="#C8134A"><path d="M9.949 6.601h4.619v4.296h-4.62V6.6zm19.401 4.317h-4.662V6.651h4.662v4.267zm-24.7 9.068H.013V15.69H4.65v4.296zM9.914 6.279V2.207h4.664v4.072H9.914zm14.78-4.097h4.65v4.091h-4.65V2.182zm-9.72 4.44h4.457v4.273h-4.457V6.623zm4.853 0h4.471V10.9h-4.47V6.622zm14.429.034v4.228H29.76V6.656h4.496zm4.829 4.262h-4.462v-4.28h4.462v4.28zM4.664 15.354H0v-4.078h4.664v4.078zm.361 4.591v-4.228h4.498v4.228H5.025zM44.111 20h-4.43v-4.296h4.43V20zm.426-4.312H49v4.26h-4.463v-4.26zM14.96 6.286V2.2h4.487v4.086H14.96zm4.888-4.108h4.464v4.087h-4.464V2.178zm14.382.02v4.09h-4.464v-4.09h4.463zm4.853 4.09h-4.458V2.196h4.458v4.092zm-29.56 9.066H5.054v-4.078h4.47v4.078zm34.617.003h-4.465v-4.099h4.466v4.1zm4.856-.003h-4.455v-4.092h4.455v4.091zM9.473 10.779H5.18C5.146 8.71 7.09 6.912 9.473 6.82v3.958zm30.185-3.978c2.42.18 4.291 1.873 4.317 3.953h-4.317V6.8zM20.586 1.684C21.905 1.08 22.987.558 24.097.091A1.33 1.33 0 0125 .068a26.015 26.015 0 013.25 1.61l-7.664.006zm18.518 9.624v2.907l-3.14-2.907h3.14zm-28.987-.001h3.082l-3.082 2.756v-2.756z"/></g><defs><clipPath id="clip0"><path fill="#fff" d="M0 0h49v20H0z"/></clipPath></defs></svg>
